src/img/icons/design.svg

<svg width="32" height="32" viewBox="0 0 32 32" fill="none" xmlns="http://www.w3.org/2000/svg">
<path d="M11.4948 15.0252L15.0214 11.4905L11.969 8.43028L10.826 9.58296C10.6384 9.7706 10.4126 9.86662 10.1487 9.87104C9.88475 9.87545 9.65131 9.77942 9.44836 9.58296C9.24541 9.38001 9.14393 9.14917 9.14393 8.89042C9.14393 8.63142 9.24541 8.40044 9.44836 8.19749L10.5933 7.06272L7.62883 4.11387L4.0941 7.6486L11.4948 15.0252ZM24.3164 27.8865L27.8507 24.3362L24.8863 21.3714L23.7434 22.5163C23.5503 22.7093 23.3215 22.8067 23.0571 22.8082C22.7926 22.81 22.5621 22.7127 22.3657 22.5163C22.1627 22.3133 22.0613 22.0838 22.0613 21.8276C22.0613 21.5715 22.1627 21.3419 22.3657 21.139L23.5009 19.996L20.4811 16.9744L16.9546 20.5009L24.3164 27.8865ZM4.12018 29.0933C3.76827 29.0933 3.47734 28.9783 3.2474 28.7484C3.01746 28.5184 2.90249 28.2275 2.90249 27.8756V24.0894C2.90249 23.923 2.93117 23.77 2.98852 23.6304C3.04562 23.4905 3.1384 23.3563 3.26686 23.2279L10.0934 16.4013L2.47622 8.77947C2.15363 8.45662 1.99493 8.07967 2.00012 7.6486C2.00557 7.21726 2.16427 6.84031 2.47622 6.51772L6.47187 2.48003C6.79472 2.15718 7.17167 1.99718 7.60275 2.00004C8.03408 2.00263 8.41104 2.16535 8.73363 2.4882L16.4209 10.1361L23.349 3.19982C23.552 2.99687 23.7736 2.84972 24.0139 2.75837C24.254 2.66728 24.5018 2.62173 24.7575 2.62173C25.0064 2.62173 25.251 2.66728 25.4913 2.75837C25.7313 2.84972 25.9528 2.99687 26.1558 3.19982L28.7959 5.89291C28.9989 6.09586 29.1434 6.31736 29.2296 6.55742C29.3158 6.79774 29.3588 7.04235 29.3588 7.29123C29.3588 7.54686 29.3158 7.79094 29.2296 8.02348C29.1434 8.25601 28.9989 8.47375 28.7959 8.6767L21.8978 15.5881L29.5157 23.236C29.8386 23.5589 30 23.9375 30 24.372C30 24.8064 29.8386 25.1817 29.5157 25.4978L25.5041 29.5036C25.1813 29.8262 24.8026 29.9875 24.3682 29.9875C23.9337 29.9875 23.5585 29.8262 23.2424 29.5036L15.6104 21.8864L8.76788 28.7289C8.63942 28.8574 8.50524 28.9501 8.36536 29.0072C8.22573 29.0646 8.07275 29.0933 7.90639 29.0933H4.12018ZM4.85905 27.1367H7.55681L22.8581 11.828L20.1518 9.12166L4.85905 24.4389V27.1367ZM21.5065 10.4713L20.1518 9.12166L22.8581 11.828L21.5065 10.4713Z" fill="#131212"/>
</svg>

<svg xmlns="http://www.w3.org/2000/svg" viewBox="0 0 32 32">
  <path fill="currentColor" d="m11.495 15.025 3.526-3.534-3.052-3.06-1.143 1.152a.947.947 0 0 1-.677.288.954.954 0 0 1-.7-.288.954.954 0 0 1-.305-.693c0-.259.101-.49.304-.693l1.145-1.134-2.964-2.95L4.094 7.65l7.4 7.376Zm12.821 12.862 3.535-3.55-2.965-2.966-1.143 1.145a.946.946 0 0 1-.686.292.937.937 0 0 1-.691-.292.95.95 0 0 1-.305-.688.95.95 0 0 1 .305-.689l1.135-1.143-3.02-3.022-3.526 3.527 7.361 7.386ZM4.12 29.093c-.352 0-.643-.115-.873-.345a1.18 1.18 0 0 1-.345-.872v-3.787c0-.166.03-.319.087-.459.057-.14.15-.274.278-.402l6.826-6.827L2.476 8.78c-.322-.322-.481-.7-.476-1.13.006-.432.164-.809.476-1.131L6.472 2.48a1.563 1.563 0 0 1 2.262.008l7.687 7.648L23.349 3.2c.203-.203.425-.35.665-.442a2.08 2.08 0 0 1 1.477 0c.24.092.462.239.665.442l2.64 2.693c.203.203.347.424.434.664a2.158 2.158 0 0 1 0 1.466 1.84 1.84 0 0 1-.434.654l-6.898 6.911 7.618 7.648c.323.323.484.701.484 1.136 0 .434-.161.81-.484 1.126l-4.012 4.006a1.556 1.556 0 0 1-1.136.483c-.434 0-.81-.16-1.126-.483l-7.632-7.618-6.842 6.843a1.233 1.233 0 0 1-.403.278c-.14.058-.292.086-.459.086H4.12Zm.739-1.956h2.698l15.301-15.309-2.706-2.706L4.859 24.439v2.698ZM21.507 10.47l-1.355-1.35 2.706 2.707-1.352-1.357Z"/>
</svg>
